X: 1
T: Coen's Memories
R: reel
M: 4/4
L: 1/8
K: Edor
B,EED EFGA |B2 ec dBAF |D3 F EFDB, |
A,DFD EDB,A, |B,EED EFGA |B2 ec dBAF |
DEFA dBAF |1DEFD E2 ED :|2DEFD EFGA ||
|:Be e2 fedB |e2 fe dBAF |A3 B d2 fd |
edef dBBA |Be e2 fedB |e2 fe dBAF |
DEFA dBAF |1DEFD EFGA :|2DEFD E2 ED ||


Tune 558	Setting 23999

